svgs/sharp-regular/martini-glass-citrus.svg

<svg xmlns="http://www.w3.org/2000/svg" viewBox="0 0 576 512"><!--! Font Awesome Pro 6.6.0 by @fontawesome - https://fontawesome.com License - https://fontawesome.com/license (Commercial License) Copyright 2024 Fonticons, Inc. --><path d="M528 144c0-53-43-96-96-96c-35.5 0-66.6 19.3-83.2 48l-52.6 0C316 40.1 369.3 0 432 0c79.5 0 144 64.5 144 144s-64.5 144-144 144c-28.2 0-54.5-8.1-76.7-22.1l35.3-35.3c12.5 6 26.6 9.4 41.4 9.4c53 0 96-43 96-96zM32 128l3.9 0L48 128l320 0 12.1 0 3.9 0 32 0 0 32-16 16L241.9 334.1 232 344l0 120 88 0 0 48-88 0-24 0L96 512l0-48 88 0 0-120-9.9-9.9L16 176 0 160l0-32 32 0zm51.9 48L208 300.1 332.1 176 83.9 176z"/></svg>

<svg xmlns="http://www.w3.org/2000/svg" viewBox="0 0 576 512"><!--! Font Awesome Pro 6.5.2 by @fontawesome - https://fontawesome.com License - https://fontawesome.com/license (Commercial License) Copyright 2024 Fonticons, Inc. --><path d="M528 144c0-53-43-96-96-96c-35.5 0-66.6 19.3-83.2 48H296.2C316 40.1 369.3 0 432 0c79.5 0 144 64.5 144 144s-64.5 144-144 144c-28.2 0-54.5-8.1-76.7-22.1l35.3-35.3c12.5 6 26.6 9.4 41.4 9.4c53 0 96-43 96-96zM32 128h3.9H48 368h12.1H384h32v32l-16 16L241.9 334.1 232 344V464h88v48H232 208 96V464h88V344l-9.9-9.9L16 176 0 160V128H32zm51.9 48L208 300.1 332.1 176H83.9z"/></svg>
